src/images/circuits/turkish.svg

<svg width="42" height="28" viewBox="0 0 42 28" fill="none" xmlns="http://www.w3.org/2000/svg">
<path d="M18.946 26.3298L2.53337 26.5669C2.24204 26.5712 2.04079 26.2768 2.15042 26.0069L2.98741 23.9459C3.09177 23.6889 2.914 23.4093 2.63716 23.3925C2.08667 23.359 1.4058 23.2974 1.18101 23.1288C0.787181 22.8334 0.787247 22.0458 1.13185 21.8981C1.47645 21.7504 16.9342 17.0244 18.608 16.0399C20.2818 15.0553 24.4662 5.60337 24.6631 4.86494C24.7692 4.46742 24.5244 3.86962 24.253 3.38621C24.1003 3.11417 24.2569 2.75195 24.5666 2.71443C29.1796 2.1555 37.356 1.20953 37.9549 1.32182C38.5569 1.4347 39.8959 3.71199 40.5722 4.98748C40.63 5.09638 40.6336 5.22488 40.5841 5.33775L39.849 7.01223C39.8027 7.11753 39.7141 7.19836 39.605 7.23473L37.3361 7.99102C37.2896 8.00655 37.2412 8.01405 37.1923 8.00934C36.69 7.96086 35.286 7.59674 33.0812 6.43831C30.1768 4.91222 28.946 5.74965 28.503 5.94656C28.0599 6.14348 27.9122 6.83245 28.0107 7.47242C28.1092 8.11239 36.8719 13.6282 37.118 14.1205C37.3641 14.6128 37.3149 16.385 36.8719 16.7296C36.5681 16.9659 34.9655 16.5437 33.8729 16.201C33.6199 16.1216 33.3564 16.2958 33.3387 16.5603C33.3088 17.0071 33.2782 17.5611 33.2782 17.911C33.2782 18.551 32.8843 19.5356 31.6536 19.8309C30.4229 20.1263 29.2414 19.5332 27.1246 19.3363C25.0077 19.1394 22.694 19.6323 21.0202 20.6169C19.3465 21.6014 19.5926 23.5714 19.8387 24.6544C20.0198 25.4509 19.4934 26.0311 19.1395 26.2726C19.0827 26.3114 19.0148 26.3288 18.946 26.3298Z" stroke="#FF0000" stroke-width="1.0113"/>
</svg>

<svg width="42" height="28" fill="none" xmlns="http://www.w3.org/2000/svg"><path d="m18.946 26.33-16.413.237a.407.407 0 0 1-.383-.56l.837-2.061a.402.402 0 0 0-.35-.554c-.55-.033-1.231-.095-1.456-.263-.394-.296-.394-1.083-.05-1.23.345-.149 15.803-4.875 17.477-5.86 1.674-.984 5.858-10.436 6.055-11.174.106-.398-.139-.995-.41-1.479-.153-.272.004-.634.314-.672 4.613-.558 12.789-1.504 13.388-1.392.602.113 1.94 2.39 2.617 3.665a.401.401 0 0 1 .012.35l-.735 1.675a.407.407 0 0 1-.244.223l-2.269.756a.348.348 0 0 1-.144.018c-.502-.048-1.906-.412-4.11-1.57-2.905-1.527-4.136-.69-4.579-.492-.443.196-.59.885-.492 1.525.098.64 8.86 6.156 9.107 6.648.246.493.197 2.265-.246 2.61-.304.236-1.907-.186-3-.529a.41.41 0 0 0-.533.36c-.03.446-.06 1-.06 1.35 0 .64-.395 1.625-1.625 1.92-1.231.295-2.413-.298-4.53-.495-2.116-.197-4.43.296-6.104 1.28-1.674.985-1.427 2.955-1.181 4.038.18.797-.346 1.377-.7 1.619a.35.35 0 0 1-.193.057Z" stroke="red" stroke-width="1.011"/></svg>
